X: 11039
T: HEATHER'S REEL
C: Bob McQuillen 7 July 2001
B: Bob's Note Book 11 #39
R: reel
Z: 2020 John Chambers <jc:trillian.mit.edu>
M: C
L: 1/8
K: G
GA \
| B2GB d2Bd | edeg dBAG | F2DF A2Bd | cBAG FDGA |
| BAGB d2Bd | cdeg dBAc | BGBd gedc | BGAF G2  :|
|: GA \
| BGAB G2ge | dBed B2cB | A2AB cdef | geag fedc |
| BGBd g2ge | dBed BdcB | ABcd efge | dBAB G2  :|
%%begintext align
%% Heather Littlefield is Ed's nice
%% little daughter, and it just seemed to me that she
%% needed a tune of her own to dance to; so here it it,
%% Heather, and I sure hope you like it!
%%endtext

%%sep 1 1 500

%%sep 1 1 500

